X: 5
T: Neckbelly
R: reel
M: 4/4
L: 1/8
K: Dmaj
|:A3B A3B | AGFE FDFG | ADBD ADBD | AGFD EFGB |
AGFG AGFG | AGFE FDFG | Ad3 dABd |1 AGFE D4 :|2 AGFE D2de ||
|: f4-f2ed | eBBA B2dB | BAAF AFAB | ABdf e2de |
f2ed f2ed | eBBA B2dB | BAAF AFAB |1 ABde d2de:|2 ABde d4 ||
|: B2dB B2dB|AFEF D2AD | BD3 DFAB | ABde fdef |
dBBA B2dB | AFEF D2AD| BD3 DFAB |1 ABde d4 :|2 ABde d2FG |]


Tune 8616	Setting 19568

